!!!OTL: Kazde sztworzenie szpieway
**kern
*staff1
=1-
*clefC4
*k[]
*met(c|)
*M2/2
2r
2d\
2d\
2.A\
4A\
2B-\
1G
=2
2A\
4r
4A\
2d\
2f-\
1e
1A
=3
2r
2A\
1d
2r
2G/
1d
=4
2r
2d\
2f-\
4f-i\
2c\
4d\
2A\
4d\
2c\
4A\
=5
!!linebreak:original
1A
1A
2r
2A\
2d\
2c\
=6
1d
1A
2r
2G/
2d\
4G/
2c\
4d\
2A\
2r
2F/
2G/
2G/
1A
=7
0D
==
*-
!!title: @{OTL}, @{GTL}, ed. @{ENC}
!!!pag:
!!!GTL: Hymnbook D
!!!EFL: 
!!!YEM: Creative Commons CC/BY/NC/SA 4.0
!!!ENC: Marcin Konik
!!!END: 2015-0m-dd
!!!EED: Marcin Konik
!!!EEV: 
!!!ONB: Encoded in vim by Marcin Konik
!!!CharacterEncoding: utf-8
!!!RDF**kern: l=long note in original notation
!!!RDF**kern: i=editorial accidental
!!muse2ps: z14jc180F
!!!COM: Anonim
!!!CDT: [?]
!!!TXO: Polish
!!!ODT: 
!!!GTL: Hymnbook D
!!!ARL: Opactwo św. Wojciecha, Staniątki 
!!!voices:	1
